X:1
T:How Can I Keep From Singing
M:6/4
L:1/4
K:C
 G c d| e3 c d c| A3 c c e| g3 e e d-| d2 z G c d| e3| c d c| A3 G c d|\
 e3 c d c-| c2 z g g e| g3 e d e| c3| e e d| e3 d e g-| g2 z e e g|\
 g3 e d e| c3 G c d| e3| c d c-| c2 z||
